X: 31
T: Song of the deer (a)
N: Derived from ojibwa31.krn
C: Chippewa Songs ~ 1910
O: Red Wing, Minnesota, U.S.A
N: Chippewa Music by Frances Densmore, 1910
Z: transcribed to **kern format by Paul von Hippel and Daniel T. Shanahan
L: 1/8
M: 2/4
Q: 1/4=108
K: B clef=bass
%%linebreak <none>
D D B, B, | 
D DC2 | 
[M:3/4]G,/> G,/ G,G,2G,2 | 
[M:2/4]C C C B, | 
C B,G,2 | 
[M:3/4]D,/> D,/ D,D,2D,2 | 
[M:2/4]G, G, G, F, | 
G, G,G,2 | 
D,/> D,/ D,D,2 | 
D,2D, D, | 
[M:3/4]D,4-D,3/ D,/ | 
[M:2/4]D,2D, D, | 
[M:3/4]D,4-D,3/ D,/ | 
D,6 |]  



